X:34
T:Italian March,The. RH.034
R:march
S:Rev.R.Harrison’s MS,c1815,Cumbria
O:England
A:Temple Sowerby,Cumbria
Z:vmp.Simon Wilson. Review PJH, 2008.
M:C|
L:1/8
Q:1/2=100
K:D
A2|d4 c>dec|d2d>d d2e2|f4 e>fge|f2f>f f2e2|!
dcde f2ed|cBce a2e2|fafd c2B2|A2A>A A2:|!
|:A2|a4 f>dfa|g>abg e2f2|g4 e>ceg|f>gaf d2A2|!
d>fe>g f2e2|f>ag>b a2g2|(3fga (3bag f2e2|d2d>d d2:|

